www/assets/icons/vrpano.svg

<svg width="24" height="24" viewBox="0 0 24 24" xmlns="http://www.w3.org/2000/svg" fill='currentColor'><path d="M20.69 4.04835C18.66 4.72835 15.86 5.49835 12 5.49835C8.11 5.49835 5.05 4.65835 3.31 4.06835C2.67 3.84835 2 4.32835 2 5.01835V18.9984C2 19.6784 2.66 20.1684 3.31 19.9484C5.36 19.2584 8.1 18.4984 12 18.4984C15.87 18.4984 18.66 19.2584 20.69 19.9484C21.34 20.1584 22 19.6784 22 18.9984V4.99835C22 4.31835 21.34 3.83835 20.69 4.04835ZM12 14.9984C9.66 14.9984 7.48 15.1484 5.48 15.4084L9.17 10.9884L11.17 13.3884L14 9.99835L18.51 15.3984C16.52 15.1484 14.3 14.9984 12 14.9984Z"/></svg>

<svg xmlns="http://www.w3.org/2000/svg" width="24" height="24" viewBox="0 0 24 24" fill='currentColor'><path d="M20.69 4.048c-2.03.68-4.83 1.45-8.69 1.45-3.89 0-6.95-.84-8.69-1.43a.993.993 0 0 0-1.31.95v13.98c0 .68.66 1.17 1.31.95 2.05-.69 4.79-1.45 8.69-1.45 3.87 0 6.66.76 8.69 1.45a1 1 0 0 0 1.31-.95v-14c0-.68-.66-1.16-1.31-.95M12 14.998c-2.34 0-4.52.15-6.52.41l3.69-4.42 2 2.4L14 9.998l4.51 5.4c-1.99-.25-4.21-.4-6.51-.4"/></svg>
